;FLAVOR:Marlin
;TIME:487
;Filament used: 0.621828m
;Layer height: 0.4
;MINX:95.117
;MINY:87.3
;MINZ:0.4
;MAXX:139.887
;MAXY:147.7
;MAXZ:2
;Generated with Cura_SteamEngine 4.11.0
M140 S60
M105
M190 S60
M104 S210
M105
M109 S210
M82 ;absolute extrusion mode
; Ender 3 Custom Start G-code
G92 E0 ; Reset Extruder
G28 ; Home all axes
G1 Z2.0 F3000 ; Move Z Axis up little to prevent scratching of Heat Bed
G1 X0.1 Y20 Z0.3 F5000.0 ; Move to start position
G1 X0.1 Y200.0 Z0.3 F1500.0 E15 ; Draw the first line
G1 X0.4 Y200.0 Z0.3 F5000.0 ; Move to side a little
G1 X0.4 Y20 Z0.3 F1500.0 E30 ; Draw the second line
G92 E0 ; Reset Extruder
G1 Z2.0 F3000 ; Move Z Axis up little to prevent scratching of Heat Bed
G1 X5 Y20 Z0.3 F5000.0 ; Move over to prevent blob squish
G92 E0
G92 E0
G1 F2700 E-5
;LAYER_COUNT:5
;LAYER:0
M107
G0 F6000 X99.71 Y90.553 Z0.4
;TYPE:SKIRT
G1 F2700 E0
G1 F1200 X100.399 Y89.916 E0.06242
G1 X101.14 Y89.341 E0.12481
G1 X101.927 Y88.831 E0.18719
G1 X102.755 Y88.39 E0.2496
G1 X103.617 Y88.021 E0.31197
G1 X104.507 Y87.727 E0.37432
G1 X105.42 Y87.509 E0.43676
G1 X106.347 Y87.371 E0.4991
G1 X107.201 Y87.313 E0.55604
G1 X107.521 Y87.304 E0.57734
G1 X107.83 Y87.3 E0.59789
G1 X126.793 Y87.3 E1.85932
G1 X127.649 Y87.311 E1.91626
G1 X128.585 Y87.365 E1.97863
G1 X129.513 Y87.497 E2.04098
G1 X130.427 Y87.709 E2.1034
G1 X131.319 Y87.998 E2.16577
G1 X132.184 Y88.361 E2.22817
G1 X133.014 Y88.797 E2.29054
G1 X133.805 Y89.302 E2.35296
G1 X134.549 Y89.873 E2.41535
G1 X135.242 Y90.505 E2.47774
G1 X135.879 Y91.193 E2.54011
G1 X136.454 Y91.934 E2.6025
G1 X136.965 Y92.72 E2.66486
G1 X137.407 Y93.548 E2.7273
G1 X137.776 Y94.41 E2.78967
G1 X138.071 Y95.3 E2.85204
G1 X138.289 Y96.212 E2.91442
G1 X138.429 Y97.14 E2.97685
G1 X138.487 Y98.001 E3.03425
G1 X138.496 Y98.321 E3.05555
G1 X138.5 Y98.63 E3.0761
G1 X138.5 Y116.425 E4.25983
G1 X138.537 Y119.033 E4.43333
G1 X138.644 Y121.554 E4.60118
G1 X138.821 Y124.049 E4.76757
G1 X139.069 Y126.549 E4.93468
G1 X139.388 Y129.041 E5.10181
G1 X139.717 Y131.138 E5.243
G1 X139.778 Y131.562 E5.2715
G1 X139.872 Y132.495 E5.33388
G1 X139.887 Y133.372 E5.39222
G1 X139.845 Y134.161 E5.44478
G1 X139.8 Y134.66 E5.47811
G1 X139.687 Y135.521 E5.53588
G1 X139.643 Y135.779 E5.55329
G1 X139.413 Y136.821 E5.62427
G1 X139.337 Y137.1 E5.6435
G1 X139.011 Y138.105 E5.71379
G1 X138.911 Y138.369 E5.73257
G1 X138.636 Y139.029 E5.78013
G1 X138.469 Y139.396 E5.80695
G1 X138.045 Y140.232 E5.8693
G1 X137.717 Y140.777 E5.91162
G1 X137.533 Y141.064 E5.93429
G1 X137.107 Y141.681 E5.98417
G1 X136.857 Y142.018 E6.01208
G1 X136.267 Y142.747 E6.07447
G1 X135.882 Y143.16 E6.11203
G1 X135.598 Y143.45 E6.13903
G1 X135.041 Y143.981 E6.19022
G1 X134.881 Y144.123 E6.20445
G1 X134.355 Y144.562 E6.25002
G1 X134.112 Y144.752 E6.27054
G1 X133.468 Y145.218 E6.32342
G1 X133.398 Y145.265 E6.32903
G1 X132.75 Y145.669 E6.37982
G1 X132.397 Y145.872 E6.40691
G1 X131.267 Y146.438 E6.49098
G1 X130.977 Y146.563 E6.51199
G1 X130.068 Y146.908 E6.57666
G1 X129.604 Y147.061 E6.60916
G1 X128.532 Y147.355 E6.68311
G1 X128.446 Y147.374 E6.68897
G1 X127.973 Y147.468 E6.72105
G1 X127.648 Y147.525 E6.74299
G1 X126.718 Y147.647 E6.80539
G1 X126.143 Y147.683 E6.84371
G1 X125.948 Y147.69 E6.85669
G1 X125.666 Y147.696 E6.87545
G1 X125.262 Y147.7 E6.90233
G1 X109.783 Y147.699 E7.932
G1 X109.065 Y147.688 E7.97976
G1 X107.811 Y147.597 E8.0634
G1 X107.17 Y147.496 E8.10657
G1 X106.886 Y147.443 E8.12578
G1 X105.897 Y147.211 E8.19336
G1 X105.531 Y147.107 E8.21867
G1 X104.625 Y146.807 E8.28215
G1 X104.491 Y146.756 E8.29169
G1 X103.929 Y146.523 E8.33216
G1 X103.572 Y146.364 E8.35816
G1 X102.78 Y145.973 E8.41691
G1 X102.228 Y145.653 E8.45936
G1 X101.827 Y145.405 E8.49072
G1 X100.973 Y144.819 E8.55962
G1 X100.8 Y144.688 E8.57405
G1 X100.239 Y144.234 E8.62206
G1 X100.142 Y144.15 E8.63059
G1 X99.728 Y143.773 E8.66784
G1 X99.482 Y143.537 E8.69052
G1 X99.049 Y143.098 E8.73153
G1 X99.008 Y143.054 E8.73553
G1 X98.436 Y142.389 E8.79388
G1 X98.195 Y142.085 E8.81969
G1 X97.757 Y141.493 E8.86868
G1 X97.593 Y141.255 E8.8879
G1 X97.157 Y140.568 E8.94203
G1 X96.992 Y140.286 E8.96376
G1 X96.371 Y139.053 E9.0556
G1 X96.277 Y138.833 E9.07151
G1 X95.97 Y138.029 E9.12876
G1 X95.835 Y137.629 E9.15684
G1 X95.629 Y136.949 E9.20411
G1 X95.582 Y136.773 E9.21622
G1 X95.408 Y136.01 E9.26828
G1 X95.33 Y135.604 E9.29578
G1 X95.163 Y134.352 E9.3798
G1 X95.14 Y134 E9.40327
G1 X95.124 Y133.681 E9.42452
G1 X95.117 Y132.743 E9.48691
G1 X95.23 Y131.507 E9.56948
G1 X95.393 Y130.424 E9.64233
G1 X95.527 Y129.603 E9.69766
G1 X95.865 Y127.094 E9.86607
G1 X96.127 Y124.608 E10.03236
G1 X96.323 Y122.093 E10.20016
G1 X96.445 Y119.581 E10.36746
G1 X96.5 Y116.414 E10.57816
G1 X96.501 Y98.81 E11.74918
G1 X96.511 Y98.144 E11.79349
G1 X96.565 Y97.208 E11.85586
G1 X96.699 Y96.279 E11.91829
G1 X96.911 Y95.366 E11.98064
G1 X97.2 Y94.474 E12.04302
G1 X97.565 Y93.609 E12.10547
G1 X98.001 Y92.779 E12.16783
G1 X98.507 Y91.989 E12.23024
G1 X99.078 Y91.245 E12.29263
G1 X99.71 Y90.553 E12.35497
G0 F6000 X100.102 Y90.728
G1 F1200 X100.788 Y90.113 E12.41625
G1 X101.524 Y89.561 E12.47745
G1 X102.306 Y89.075 E12.5387
G1 X103.127 Y88.658 E12.59995
G1 X103.981 Y88.314 E12.6612
G1 X104.861 Y88.045 E12.72241
G1 X105.762 Y87.854 E12.78368
G1 X106.676 Y87.742 E12.84493
G1 X107.212 Y87.713 E12.88064
G1 X107.532 Y87.704 E12.90193
G1 X107.83 Y87.7 E12.92176
G1 X126.793 Y87.7 E14.18318
G1 X127.643 Y87.711 E14.23973
G1 X128.562 Y87.764 E14.30096
G1 X129.473 Y87.897 E14.3622
G1 X130.369 Y88.108 E14.42344
G1 X131.243 Y88.396 E14.48465
G1 X132.09 Y88.759 E14.54595
G1 X132.901 Y89.194 E14.60717
G1 X133.671 Y89.698 E14.66838
G1 X134.395 Y90.267 E14.72964
G1 X135.067 Y90.897 E14.79091
G1 X135.682 Y91.582 E14.85215
G1 X136.235 Y92.318 E14.91339
G1 X136.722 Y93.099 E14.97461
G1 X137.139 Y93.92 E15.03587
G1 X137.484 Y94.774 E15.09714
G1 X137.753 Y95.654 E15.15835
G1 X137.945 Y96.555 E15.21963
G1 X138.058 Y97.468 E15.28082
G1 X138.087 Y98.012 E15.31706
G1 X138.096 Y98.332 E15.33836
G1 X138.1 Y98.63 E15.35818
G1 X138.1 Y116.431 E16.54231
G1 X138.137 Y119.056 E16.71694
G1 X138.244 Y121.564 E16.88393
G1 X138.422 Y124.084 E17.05198
G1 X138.671 Y126.599 E17.22009
G1 X138.99 Y129.087 E17.38695
G1 X139.321 Y131.195 E17.52889
G1 X139.382 Y131.619 E17.55739
G1 X139.473 Y132.535 E17.61862
G1 X139.487 Y133.363 E17.67371
G1 X139.486 Y133.408 E17.6767
G1 X139.446 Y134.125 E17.72447
G1 X139.401 Y134.624 E17.7578
G1 X139.293 Y135.454 E17.81348
G1 X139.249 Y135.712 E17.83089
G1 X139.027 Y136.716 E17.89928
G1 X138.951 Y136.995 E17.91852
G1 X138.637 Y137.964 E17.98628
G1 X138.537 Y138.228 E18.00506
G1 X138.272 Y138.863 E18.05083
G1 X138.105 Y139.23 E18.07765
G1 X137.688 Y140.051 E18.1389
G1 X137.381 Y140.561 E18.1785
G1 X137.197 Y140.848 E18.20118
G1 X136.786 Y141.442 E18.24923
G1 X136.536 Y141.779 E18.27714
G1 X135.956 Y142.494 E18.33838
G1 X135.596 Y142.881 E18.37354
G1 X135.312 Y143.171 E18.40054
G1 X134.775 Y143.682 E18.44985
G1 X134.615 Y143.824 E18.46408
G1 X134.108 Y144.246 E18.50796
G1 X133.865 Y144.436 E18.52848
G1 X133.245 Y144.886 E18.57944
G1 X133.175 Y144.933 E18.58505
G1 X132.55 Y145.322 E18.63402
G1 X132.197 Y145.525 E18.66111
G1 X131.109 Y146.07 E18.74206
G1 X130.819 Y146.195 E18.76306
G1 X129.942 Y146.528 E18.82547
G1 X129.478 Y146.681 E18.85797
G1 X128.446 Y146.964 E18.92915
G1 X128.36 Y146.983 E18.93501
G1 X127.904 Y147.074 E18.96594
G1 X127.579 Y147.131 E18.98789
G1 X126.666 Y147.25 E19.04913
G1 X126.128 Y147.283 E19.08499
G1 X125.933 Y147.29 E19.09797
G1 X125.662 Y147.296 E19.116
G1 X125.262 Y147.3 E19.14261
G1 X109.79 Y147.299 E20.17181
G1 X109.072 Y147.288 E20.21958
G1 X107.863 Y147.2 E20.30022
G1 X107.243 Y147.103 E20.34196
G1 X106.959 Y147.05 E20.36118
G1 X106.007 Y146.826 E20.42623
G1 X105.641 Y146.722 E20.45154
G1 X104.768 Y146.433 E20.51272
G1 X104.634 Y146.382 E20.52225
G1 X104.091 Y146.158 E20.56133
G1 X103.734 Y145.999 E20.58732
G1 X102.971 Y145.622 E20.64394
G1 X102.439 Y145.313 E20.68486
G1 X102.038 Y145.065 E20.71622
G1 X101.214 Y144.501 E20.78265
G1 X101.041 Y144.37 E20.79708
G1 X100.501 Y143.932 E20.84333
G1 X100.404 Y143.848 E20.85187
G1 X100.005 Y143.484 E20.8878
G1 X99.759 Y143.248 E20.91047
G1 X99.342 Y142.825 E20.94999
G1 X99.301 Y142.781 E20.95399
G1 X98.75 Y142.14 E21.01021
G1 X98.509 Y141.836 E21.03602
G1 X98.087 Y141.266 E21.0832
G1 X97.923 Y141.028 E21.10242
G1 X97.502 Y140.366 E21.15461
G1 X97.337 Y140.084 E21.17634
G1 X96.738 Y138.896 E21.26485
G1 X96.644 Y138.676 E21.28076
G1 X96.349 Y137.901 E21.33592
G1 X96.214 Y137.501 E21.36401
G1 X96.016 Y136.846 E21.40952
G1 X95.969 Y136.67 E21.42164
G1 X95.8 Y135.935 E21.47181
G1 X95.722 Y135.529 E21.49931
G1 X95.562 Y134.322 E21.5803
G1 X95.539 Y133.98 E21.6031
G1 X95.523 Y133.661 E21.62435
G1 X95.517 Y132.74 E21.68562
G1 X95.626 Y131.566 E21.76405
G1 X95.788 Y130.488 E21.83656
G1 X95.925 Y129.649 E21.89311
G1 X96.261 Y127.153 E22.06064
G1 X96.526 Y124.645 E22.22841
G1 X96.723 Y122.108 E22.39768
G1 X96.845 Y119.608 E22.56417
G1 X96.9 Y116.421 E22.77621
G1 X96.901 Y98.816 E23.9473
G1 X96.911 Y98.15 E23.9916
G1 X96.965 Y97.231 E24.05284
G1 X97.098 Y96.32 E24.11408
G1 X97.31 Y95.424 E24.17533
G1 X97.599 Y94.55 E24.23657
G1 X97.963 Y93.704 E24.29783
G1 X98.398 Y92.893 E24.35905
G1 X98.903 Y92.123 E24.4203
G1 X99.472 Y91.399 E24.48156
G1 X100.102 Y90.728 E24.54278
G0 F6000 X100.493 Y90.906
G1 F1200 X101.175 Y90.315 E24.60281
G1 X101.907 Y89.786 E24.66289
G1 X102.683 Y89.323 E24.723
G1 X103.497 Y88.932 E24.78307
G1 X104.342 Y88.613 E24.84315
G1 X105.212 Y88.371 E24.90322
G1 X106.1 Y88.207 E24.96329
G1 X107.223 Y88.113 E25.03825
G1 X107.543 Y88.104 E25.05955
G1 X107.83 Y88.1 E25.07864
G1 X126.793 Y88.1 E26.34007
G1 X127.637 Y88.111 E26.39621
G1 X128.539 Y88.164 E26.45632
G1 X129.432 Y88.296 E26.51637
G1 X130.31 Y88.507 E26.57643
G1 X131.166 Y88.795 E26.63651
G1 X131.993 Y89.157 E26.69656
G1 X132.785 Y89.592 E26.75667
G1 X133.536 Y90.094 E26.81676
G1 X134.239 Y90.661 E26.87684
G1 X134.889 Y91.288 E26.93691
G1 X135.481 Y91.97 E26.99699
G1 X136.011 Y92.701 E27.05705
G1 X136.473 Y93.477 E27.11713
G1 X136.866 Y94.29 E27.1772
G1 X137.184 Y95.135 E27.23725
G1 X137.427 Y96.005 E27.29734
G1 X137.592 Y96.893 E27.35742
G1 X137.687 Y98.023 E27.43286
G1 X137.696 Y98.343 E27.45415
G1 X137.7 Y98.63 E27.47324
G1 X137.7 Y116.437 E28.65777
G1 X137.737 Y119.043 E28.83114
G1 X137.846 Y121.608 E29.00192
G1 X138.024 Y124.115 E29.1691
G1 X138.275 Y126.656 E29.33895
G1 X138.596 Y129.163 E29.50708
G1 X138.925 Y131.252 E29.64776
G1 X138.986 Y131.676 E29.67625
G1 X139.075 Y132.574 E29.73628
G1 X139.087 Y133.355 E29.78824
G1 X139.048 Y134.089 E29.83713
G1 X139.003 Y134.588 E29.87046
G1 X138.899 Y135.387 E29.92406
G1 X138.855 Y135.645 E29.94147
G1 X138.641 Y136.611 E30.00728
G1 X138.565 Y136.89 E30.02652
G1 X138.263 Y137.822 E30.09169
G1 X138.163 Y138.086 E30.11047
G1 X137.908 Y138.698 E30.15457
G1 X137.741 Y139.065 E30.18139
G1 X137.331 Y139.869 E30.24143
G1 X137.044 Y140.345 E30.2784
G1 X136.86 Y140.632 E30.30108
G1 X136.465 Y141.204 E30.34732
G1 X136.215 Y141.541 E30.37523
G1 X135.645 Y142.242 E30.43533
G1 X135.31 Y142.601 E30.468
G1 X135.026 Y142.891 E30.495
G1 X134.51 Y143.383 E30.54242
G1 X134.35 Y143.525 E30.55665
G1 X133.862 Y143.931 E30.59888
G1 X133.619 Y144.121 E30.6194
G1 X133.022 Y144.554 E30.66846
G1 X132.952 Y144.601 E30.67407
G1 X132.351 Y144.975 E30.72116
G1 X131.998 Y145.178 E30.74824
G1 X130.95 Y145.703 E30.82622
G1 X130.66 Y145.828 E30.84722
G1 X129.817 Y146.148 E30.9072
G1 X129.353 Y146.301 E30.9397
G1 X128.359 Y146.574 E31.00827
G1 X128.273 Y146.593 E31.01413
G1 X127.835 Y146.68 E31.04384
G1 X127.51 Y146.737 E31.06579
G1 X126.614 Y146.853 E31.12588
G1 X126.114 Y146.883 E31.1592
G1 X125.919 Y146.89 E31.17218
G1 X125.658 Y146.896 E31.18955
G1 X125.262 Y146.9 E31.21589
G1 X109.796 Y146.899 E32.2447
G1 X109.078 Y146.888 E32.29246
G1 X107.915 Y146.803 E32.37003
G1 X107.317 Y146.71 E32.41029
G1 X107.033 Y146.657 E32.42951
G1 X106.116 Y146.442 E32.49216
G1 X105.75 Y146.338 E32.51747
G1 X104.91 Y146.059 E32.57635
G1 X104.776 Y146.008 E32.58589
G1 X104.254 Y145.793 E32.62344
G1 X103.897 Y145.634 E32.64944
G1 X103.163 Y145.271 E32.70391
G1 X102.649 Y144.973 E32.74343
G1 X102.248 Y144.725 E32.77479
G1 X101.455 Y144.182 E32.83873
G1 X101.282 Y144.051 E32.85316
G1 X100.763 Y143.63 E32.89762
G1 X100.666 Y143.546 E32.90615
G1 X100.282 Y143.196 E32.94071
G1 X100.036 Y142.96 E32.96339
G1 X99.635 Y142.553 E33.0014
G1 X99.594 Y142.509 E33.0054
G1 X99.063 Y141.892 E33.05955
G1 X98.822 Y141.588 E33.08535
G1 X98.416 Y141.039 E33.13077
G1 X98.252 Y140.801 E33.15
G1 X97.847 Y140.164 E33.20021
G1 X97.682 Y139.882 E33.22195
G1 X97.106 Y138.739 E33.30709
G1 X97.012 Y138.519 E33.323
G1 X96.728 Y137.773 E33.3761
G1 X96.593 Y137.373 E33.40418
G1 X96.402 Y136.743 E33.44798
G1 X96.355 Y136.567 E33.46009
G1 X96.193 Y135.859 E33.50841
G1 X96.115 Y135.453 E33.53591
G1 X95.961 Y134.292 E33.61382
G1 X95.939 Y133.96 E33.63595
G1 X95.923 Y133.641 E33.65719
G1 X95.918 Y132.738 E33.71726
G1 X96.022 Y131.625 E33.79162
G1 X96.183 Y130.553 E33.86373
G1 X96.317 Y129.735 E33.91887
G1 X96.656 Y127.211 E34.08828
G1 X96.927 Y124.645 E34.25992
G1 X97.12 Y122.157 E34.42592
G1 X97.245 Y119.603 E34.59601
G1 X97.3 Y116.428 E34.80725
G1 X97.301 Y98.822 E35.9784
G1 X97.311 Y98.156 E36.02271
G1 X97.365 Y97.254 E36.08282
G1 X97.498 Y96.361 E36.14288
G1 X97.709 Y95.483 E36.20294
G1 X97.998 Y94.627 E36.26304
G1 X98.361 Y93.8 E36.32312
G1 X98.795 Y93.009 E36.38314
G1 X99.298 Y92.259 E36.44321
G1 X99.866 Y91.556 E36.50333
G1 X100.493 Y90.906 E36.56341
G1 F2700 E31.56341
;MESH:v5_bottom.stl
G0 F6000 X107.088 Y97.889
G0 X107.914 Y98.714
G0 X108 Y133.329
G1 F2700 E36.56341
G0 F6000 X107.7 Y133.329
;TYPE:WALL-OUTER
G1 F1200 X107.7 Y98.5 E38.88024
G1 X127.3 Y98.5 E40.18404
G1 X127.3 Y133.329 E42.50087
G1 X128.692 Y133.329 E42.59347
G1 X128.663 Y133.622 E42.61305
G1 X128.629 Y133.822 E42.62655
G1 X128.568 Y134.067 E42.64334
G1 X128.402 Y134.519 E42.67537
G1 X128.317 Y134.697 E42.6885
G1 X128.185 Y134.927 E42.70614
G1 X128.073 Y135.096 E42.71962
G1 X127.913 Y135.303 E42.73703
G1 X127.588 Y135.644 E42.76836
G1 X127.249 Y135.915 E42.79723
G1 X127.019 Y136.061 E42.81535
G1 X126.841 Y136.159 E42.82887
G1 X126.613 Y136.264 E42.84557
G1 X126.188 Y136.411 E42.87548
G1 X125.932 Y136.469 E42.89294
G1 X125.741 Y136.5 E42.90582
G1 X109.26 Y136.5 E44.00214
G1 X108.795 Y136.406 E44.03369
G1 X108.588 Y136.342 E44.04811
G1 X108.343 Y136.246 E44.06561
G1 X108.166 Y136.163 E44.07861
G1 X107.928 Y136.03 E44.09675
G1 X107.57 Y135.779 E44.12583
G1 X107.38 Y135.613 E44.14262
G1 X107.232 Y135.467 E44.15645
G1 X107.054 Y135.263 E44.17446
G1 X106.933 Y135.104 E44.18775
G1 X106.792 Y134.889 E44.20485
G1 X106.578 Y134.473 E44.23597
G1 X106.5 Y134.275 E44.25013
G1 X106.42 Y134.023 E44.26771
G1 X106.332 Y133.595 E44.29678
G1 X106.307 Y133.329 E44.31455
G1 X107.7 Y133.329 E44.40722
G0 F6000 X108.1 Y133.729
;TYPE:WALL-INNER
G1 F1200 X108.1 Y98.9 E46.72405
G1 X126.9 Y98.9 E47.97463
G1 X126.9 Y133.729 E50.29147
G1 X128.059 Y133.729 E50.36856
G1 X128.184 Y133.729 E50.37688
G1 X128.239 Y133.729 E50.38054
G1 X128.184 Y133.953 E50.38991
G1 X128.141 Y134.07 E50.3967
G1 X128.034 Y134.361 E50.41733
G1 X127.842 Y134.721 E50.44447
G1 X127.612 Y135.038 E50.47052
G1 X127.314 Y135.351 E50.49927
G1 X127.018 Y135.588 E50.52449
G1 X126.663 Y135.801 E50.55203
G1 X126.468 Y135.891 E50.56632
G1 X126.076 Y136.026 E50.5939
G1 X125.708 Y136.1 E50.61886
G1 X109.299 Y136.1 E51.7104
G1 X108.893 Y136.018 E51.73795
G1 X108.505 Y135.88 E51.76534
G1 X108.148 Y135.695 E51.79209
G1 X107.811 Y135.458 E51.8195
G1 X107.519 Y135.188 E51.84595
G1 X107.258 Y134.871 E51.87326
G1 X107.142 Y134.695 E51.88729
G1 X106.942 Y134.305 E51.91644
G1 X106.855 Y134.06 E51.93374
G1 X106.809 Y133.927 E51.9431
G1 X106.768 Y133.729 E51.95655
G1 X106.809 Y133.729
G1 X106.95 Y133.729 E51.96401
G1 X108.1 Y133.729 E52.04051
G0 F6000 X108.49 Y134.119
;TYPE:SKIN
G1 F1200 X108.49 Y99.29 E54.35734
G1 X126.51 Y99.29 E55.55604
G1 X126.51 Y134.119 E57.87287
G1 X127.708 Y134.119 E57.95256
G1 X127.678 Y134.199 E57.95825
