;FLAVOR:Marlin
;TIME:980
;Filament used: 1.00281m
;Layer height: 0.4
;MINX:95.1
;MINY:86.5
;MINZ:0.4
;MAXX:139.9
;MAXY:148.5
;MAXZ:13.2
;Generated with Cura_SteamEngine 4.11.0
M140 S60
M105
M190 S60
M104 S210
M105
M109 S210
M82 ;absolute extrusion mode
; Ender 3 Custom Start G-code
G92 E0 ; Reset Extruder
G28 ; Home all axes
G1 Z2.0 F3000 ; Move Z Axis up little to prevent scratching of Heat Bed
G1 X0.1 Y20 Z0.3 F5000.0 ; Move to start position
G1 X0.1 Y200.0 Z0.3 F1500.0 E15 ; Draw the first line
G1 X0.4 Y200.0 Z0.3 F5000.0 ; Move to side a little
G1 X0.4 Y20 Z0.3 F1500.0 E30 ; Draw the second line
G92 E0 ; Reset Extruder
G1 Z2.0 F3000 ; Move Z Axis up little to prevent scratching of Heat Bed
G1 X5 Y20 Z0.3 F5000.0 ; Move over to prevent blob squish
G92 E0
G92 E0
G1 F2700 E-5
;LAYER_COUNT:33
;LAYER:0
M107
G0 F6000 X98.547 Y90.219 Z0.4
;TYPE:SKIRT
G1 F2700 E0
G1 F1200 X99.026 Y89.759 E0.04418
G1 X99.246 Y89.56 E0.06391
G1 X99.968 Y88.961 E0.12631
G1 X100.738 Y88.426 E0.18869
G1 X101.616 Y87.925 E0.25593
G1 X101.833 Y87.814 E0.27214
G1 X102.685 Y87.423 E0.3345
G1 X103.46 Y87.14 E0.38938
G1 X103.689 Y87.066 E0.40539
G1 X104.593 Y86.816 E0.46778
G1 X105.514 Y86.644 E0.53011
G1 X106.06 Y86.58 E0.56668
G1 X106.255 Y86.562 E0.5797
G1 X107.082 Y86.517 E0.6348
G1 X108.163 Y86.5 E0.70672
G1 X113.753 Y86.5 E1.07856
G1 X125.573 Y86.511 E1.86483
G1 X127.092 Y86.502 E1.96588
G1 X127.342 Y86.504 E1.98251
G1 X127.938 Y86.514 E2.02216
G1 X129.287 Y86.62 E2.11217
G1 X129.5 Y86.65 E2.12648
G1 X130.422 Y86.82 E2.18885
G1 X131.091 Y86.995 E2.23485
G1 X131.199 Y87.027 E2.24234
G1 X132.467 Y87.489 E2.33211
G1 X132.669 Y87.577 E2.34677
G1 X133.512 Y87.988 E2.40916
G1 X134.474 Y88.574 E2.48409
G1 X134.669 Y88.707 E2.49979
G1 X135.421 Y89.268 E2.5622
G1 X136.122 Y89.891 E2.62458
G1 X136.537 Y90.316 E2.6641
G1 X136.741 Y90.536 E2.68405
G1 X137.349 Y91.25 E2.74644
G1 X137.893 Y92.013 E2.80877
G1 X138.435 Y92.941 E2.88026
G1 X138.553 Y93.168 E2.89728
G1 X138.95 Y94.018 E2.95968
G1 X139.26 Y94.86 E3.01937
G1 X139.334 Y95.089 E3.03538
G1 X139.584 Y95.993 E3.09777
G1 X139.756 Y96.914 E3.16009
G1 X139.819 Y97.45 E3.19599
G1 X139.837 Y97.643 E3.20889
G1 X139.883 Y98.48 E3.26465
G1 X139.9 Y99.563 E3.3367
G1 X139.9 Y133.289 E5.58016
G1 X139.898 Y133.518 E5.5954
G1 X139.87 Y134.864 E5.68495
G1 X139.768 Y136.141 E5.77017
G1 X139.738 Y136.358 E5.78474
G1 X139.593 Y137.179 E5.8402
G1 X139.543 Y137.41 E5.85592
G1 X139.349 Y138.172 E5.90823
G1 X139.282 Y138.401 E5.9241
G1 X139.008 Y139.217 E5.98136
G1 X138.918 Y139.454 E5.99822
G1 X138.602 Y140.203 E6.0523
G1 X138.503 Y140.415 E6.06786
G1 X138.074 Y141.241 E6.12978
G1 X137.943 Y141.469 E6.14727
G1 X137.588 Y142.044 E6.19222
G1 X137.468 Y142.226 E6.20672
G1 X136.939 Y142.961 E6.26696
G1 X136.797 Y143.142 E6.28226
G1 X136.299 Y143.733 E6.33367
G1 X136.137 Y143.912 E6.34973
G1 X135.53 Y144.532 E6.40745
G1 X135.353 Y144.699 E6.42364
G1 X134.786 Y145.198 E6.47388
G1 X134.618 Y145.336 E6.48834
G1 X133.947 Y145.846 E6.54441
G1 X133.74 Y145.991 E6.56122
G1 X133.055 Y146.434 E6.61548
G1 X132.85 Y146.556 E6.63135
G1 X132.119 Y146.954 E6.68672
G1 X131.954 Y147.036 E6.69898
G1 X131.387 Y147.298 E6.74052
G1 X131.165 Y147.393 E6.75659
G1 X130.747 Y147.562 E6.78658
G1 X130.185 Y147.761 E6.82624
G1 X129.944 Y147.839 E6.84309
G1 X129.175 Y148.057 E6.89626
G1 X128.975 Y148.106 E6.90996
G1 X127.811 Y148.326 E6.98876
G1 X127.391 Y148.382 E7.01694
G1 X126.144 Y148.476 E7.10013
G1 X124.975 Y148.498 E7.1779
G1 X124.768 Y148.5 E7.19167
G1 X110.311 Y148.5 E8.15336
G1 X110.082 Y148.498 E8.16859
G1 X108.736 Y148.47 E8.25815
G1 X107.459 Y148.368 E8.34336
G1 X107.242 Y148.338 E8.35794
G1 X106.421 Y148.193 E8.41339
G1 X106.19 Y148.143 E8.42912
G1 X105.428 Y147.949 E8.48142
G1 X105.199 Y147.882 E8.49729
G1 X104.345 Y147.594 E8.55725
G1 X104.108 Y147.503 E8.57413
G1 X103.415 Y147.209 E8.62421
G1 X103.202 Y147.11 E8.63983
G1 X102.358 Y146.673 E8.70306
G1 X102.13 Y146.542 E8.72055
G1 X101.554 Y146.187 E8.76556
G1 X101.369 Y146.065 E8.7803
G1 X100.593 Y145.503 E8.84403
G1 X100.405 Y145.354 E8.85999
G1 X99.854 Y144.888 E8.90799
G1 X99.685 Y144.735 E8.92316
G1 X99.067 Y144.129 E8.98073
G1 X98.9 Y143.952 E8.99692
G1 X98.401 Y143.385 E9.04716
G1 X98.263 Y143.217 E9.06163
G1 X97.747 Y142.537 E9.11841
G1 X97.603 Y142.331 E9.13513
G1 X97.174 Y141.668 E9.18766
G1 X97.051 Y141.462 E9.20362
G1 X96.62 Y140.666 E9.26383
G1 X96.518 Y140.458 E9.27924
G1 X96.22 Y139.796 E9.32754
G1 X96.13 Y139.577 E9.34329
G1 X95.828 Y138.75 E9.40185
G1 X95.747 Y138.497 E9.41952
G1 X95.531 Y137.73 E9.47253
G1 X95.486 Y137.544 E9.48526
G1 X95.276 Y136.421 E9.56125
G1 X95.22 Y136.004 E9.58924
G1 X95.124 Y134.743 E9.67337
G1 X95.102 Y133.554 E9.75247
G1 X95.1 Y133.351 E9.76598
G1 X95.101 Y99.198 E12.03784
G1 X95.113 Y98.466 E12.08654
G1 X95.223 Y97.09 E12.17837
G1 X95.253 Y96.88 E12.19248
G1 X95.425 Y95.958 E12.25487
G1 X95.569 Y95.401 E12.29314
G1 X95.6 Y95.293 E12.30061
G1 X95.897 Y94.404 E12.36296
G1 X96.091 Y93.929 E12.39709
G1 X96.18 Y93.725 E12.4119
G1 X96.591 Y92.883 E12.47422
G1 X97.212 Y91.872 E12.55315
G1 X97.355 Y91.665 E12.56989
G1 X97.92 Y90.917 E12.63224
G1 X98.547 Y90.219 E12.69466
G0 F6000 X98.857 Y90.475
G1 F1200 X99.294 Y90.056 E12.73493
G1 X99.514 Y89.857 E12.75466
G1 X100.223 Y89.27 E12.81589
G1 X100.98 Y88.746 E12.87713
G1 X101.798 Y88.281 E12.93973
G1 X102.015 Y88.17 E12.95594
G1 X102.852 Y87.787 E13.01717
G1 X103.583 Y87.521 E13.06891
G1 X103.812 Y87.447 E13.08492
G1 X104.699 Y87.202 E13.14614
G1 X105.605 Y87.035 E13.20742
G1 X106.097 Y86.978 E13.24037
G1 X106.292 Y86.96 E13.25339
G1 X107.089 Y86.916 E13.30649
G1 X107.986 Y86.901 E13.36617
G1 X113.753 Y86.9 E13.74979
G1 X125.576 Y86.911 E14.53626
G1 X127.095 Y86.902 E14.6373
G1 X127.335 Y86.903 E14.65327
G1 X127.931 Y86.913 E14.69292
G1 X129.231 Y87.016 E14.77967
G1 X129.444 Y87.046 E14.79398
G1 X130.35 Y87.213 E14.85526
G1 X130.977 Y87.379 E14.8984
G1 X131.085 Y87.411 E14.9059
G1 X132.308 Y87.856 E14.99247
G1 X132.51 Y87.944 E15.00713
G1 X133.337 Y88.348 E15.06835
G1 X134.249 Y88.905 E15.13944
G1 X134.444 Y89.038 E15.15514
G1 X135.181 Y89.589 E15.21635
G1 X135.868 Y90.202 E15.2776
G1 X136.244 Y90.588 E15.31344
G1 X136.448 Y90.808 E15.3334
G1 X137.044 Y91.509 E15.39461
G1 X137.577 Y92.26 E15.45587
G1 X138.08 Y93.126 E15.52249
G1 X138.198 Y93.353 E15.53951
G1 X138.587 Y94.188 E15.60078
G1 X138.879 Y94.983 E15.65712
G1 X138.953 Y95.212 E15.67313
G1 X139.198 Y96.099 E15.73434
G1 X139.365 Y97.005 E15.79562
G1 X139.421 Y97.487 E15.8279
G1 X139.439 Y97.68 E15.8408
G1 X139.484 Y98.487 E15.89456
G1 X139.499 Y99.386 E15.95437
G1 X139.5 Y133.289 E18.20961
G1 X139.498 Y133.509 E18.22424
G1 X139.47 Y134.855 E18.3138
G1 X139.372 Y136.087 E18.39601
G1 X139.342 Y136.304 E18.41058
G1 X139.202 Y137.094 E18.46395
G1 X139.152 Y137.325 E18.47968
G1 X138.966 Y138.06 E18.53011
G1 X138.899 Y138.289 E18.54598
G1 X138.635 Y139.075 E18.60114
G1 X138.545 Y139.312 E18.618
G1 X138.239 Y140.034 E18.67016
G1 X138.14 Y140.246 E18.68573
G1 X137.727 Y141.042 E18.74538
G1 X137.596 Y141.27 E18.76287
G1 X137.255 Y141.824 E18.80615
G1 X137.135 Y142.006 E18.82065
G1 X136.625 Y142.714 E18.87869
G1 X136.483 Y142.895 E18.89399
G1 X136.002 Y143.465 E18.94361
G1 X135.84 Y143.644 E18.95967
G1 X135.255 Y144.241 E19.01527
G1 X135.078 Y144.408 E19.03145
G1 X134.532 Y144.889 E19.07986
G1 X134.364 Y145.027 E19.09432
G1 X133.718 Y145.518 E19.1483
G1 X133.511 Y145.663 E19.16511
G1 X132.85 Y146.09 E19.21745
G1 X132.645 Y146.212 E19.23332
G1 X131.941 Y146.595 E19.28663
G1 X131.776 Y146.677 E19.29889
G1 X131.229 Y146.93 E19.33898
G1 X131.007 Y147.025 E19.35504
G1 X130.603 Y147.188 E19.38402
G1 X130.062 Y147.38 E19.42221
G1 X129.821 Y147.458 E19.43906
G1 X129.079 Y147.669 E19.49037
G1 X128.879 Y147.718 E19.50407
G1 X127.758 Y147.929 E19.57995
G1 X127.338 Y147.985 E19.60814
G1 X126.136 Y148.076 E19.68832
G1 X124.967 Y148.098 E19.7661
G1 X124.768 Y148.1 E19.77934
G1 X110.311 Y148.1 E20.74102
G1 X110.091 Y148.098 E20.75566
G1 X108.745 Y148.07 E20.84521
G1 X107.513 Y147.972 E20.92742
G1 X107.296 Y147.942 E20.942
G1 X106.506 Y147.802 E20.99537
G1 X106.275 Y147.752 E21.01109
G1 X105.54 Y147.566 E21.06152
G1 X105.311 Y147.499 E21.07739
G1 X104.488 Y147.221 E21.13518
G1 X104.251 Y147.13 E21.15207
G1 X103.583 Y146.846 E21.20035
G1 X103.37 Y146.747 E21.21597
G1 X102.557 Y146.326 E21.27688
G1 X102.329 Y146.195 E21.29437
G1 X101.774 Y145.853 E21.33773
G1 X101.589 Y145.731 E21.35247
G1 X100.841 Y145.189 E21.41392
G1 X100.653 Y145.04 E21.42988
G1 X100.123 Y144.591 E21.47608
G1 X99.954 Y144.438 E21.49125
G1 X99.358 Y143.854 E21.54676
G1 X99.191 Y143.677 E21.56294
G1 X98.71 Y143.131 E21.61135
G1 X98.572 Y142.963 E21.62581
G1 X98.075 Y142.308 E21.6805
G1 X97.931 Y142.102 E21.69722
G1 X97.518 Y141.463 E21.74783
G1 X97.395 Y141.257 E21.76379
G1 X96.979 Y140.49 E21.82184
G1 X96.877 Y140.282 E21.83725
G1 X96.59 Y139.644 E21.88378
G1 X96.5 Y139.425 E21.89953
G1 X96.209 Y138.628 E21.95597
G1 X96.128 Y138.375 E21.97364
G1 X95.92 Y137.636 E22.02471
G1 X95.875 Y137.45 E22.03744
G1 X95.672 Y136.368 E22.11067
G1 X95.616 Y135.951 E22.13866
G1 X95.524 Y134.736 E22.21971
G1 X95.5 Y133.351 E22.31186
G1 X95.501 Y99.204 E24.58333
G1 X95.513 Y98.472 E24.63203
G1 X95.619 Y97.147 E24.72045
G1 X95.649 Y96.937 E24.73456
G1 X95.818 Y96.032 E24.7958
G1 X95.953 Y95.511 E24.8316
G1 X95.984 Y95.403 E24.83908
G1 X96.277 Y94.53 E24.90033
G1 X96.457 Y94.089 E24.93202
G1 X96.546 Y93.885 E24.94682
G1 X96.951 Y93.058 E25.00808
G1 X97.541 Y92.099 E25.08298
G1 X97.684 Y91.892 E25.09971
G1 X98.239 Y91.158 E25.16092
G1 X98.857 Y90.475 E25.2222
G0 F6000 X99.166 Y90.731
G1 F1200 X99.563 Y90.353 E25.25866
G1 X99.783 Y90.154 E25.27839
G1 X100.479 Y89.578 E25.33849
G1 X101.223 Y89.066 E25.39857
G1 X101.98 Y88.637 E25.45645
G1 X102.197 Y88.526 E25.47266
G1 X103.018 Y88.151 E25.5327
G1 X103.706 Y87.901 E25.5814
G1 X103.935 Y87.827 E25.5974
G1 X104.805 Y87.588 E25.65742
G1 X106.133 Y87.376 E25.74688
G1 X106.328 Y87.358 E25.7599
G1 X107.095 Y87.316 E25.811
G1 X107.992 Y87.301 E25.87068
G1 X113.752 Y87.3 E26.25384
G1 X125.577 Y87.311 E27.04044
G1 X127.097 Y87.302 E27.14155
G1 X127.328 Y87.303 E27.15692
G1 X127.924 Y87.313 E27.19657
G1 X129.176 Y87.412 E27.28011
G1 X129.389 Y87.442 E27.29442
G1 X130.276 Y87.607 E27.35444
G1 X130.864 Y87.762 E27.39489
G1 X130.972 Y87.794 E27.40238
G1 X132.148 Y88.223 E27.48565
G1 X132.35 Y88.311 E27.50031
G1 X133.161 Y88.708 E27.56037
G1 X134.023 Y89.235 E27.62758
G1 X134.218 Y89.368 E27.64328
G1 X134.941 Y89.91 E27.70339
G1 X135.613 Y90.513 E27.76345
G1 X135.95 Y90.86 E27.79563
G1 X136.154 Y91.08 E27.81558
G1 X136.738 Y91.768 E27.87561
G1 X137.259 Y92.506 E27.93571
G1 X137.725 Y93.31 E27.99752
G1 X137.843 Y93.537 E28.01454
G1 X138.224 Y94.356 E28.07463
G1 X138.499 Y95.106 E28.12777
G1 X138.573 Y95.335 E28.14377
G1 X138.812 Y96.205 E28.20379
G1 X139.023 Y97.524 E28.29265
G1 X139.041 Y97.717 E28.30554
G1 X139.084 Y98.494 E28.35731
G1 X139.099 Y99.393 E28.41712
G1 X139.1 Y133.289 E30.67189
G1 X139.098 Y133.501 E30.68599
G1 X139.07 Y134.847 E30.77555
G1 X138.976 Y136.032 E30.85462
G1 X138.946 Y136.249 E30.86919
G1 X138.811 Y137.01 E30.9206
G1 X138.761 Y137.241 E30.93633
G1 X138.582 Y137.947 E30.98478
G1 X138.515 Y138.176 E31.00065
G1 X138.261 Y138.933 E31.05376
G1 X138.171 Y139.17 E31.07063
G1 X137.877 Y139.865 E31.12082
G1 X137.778 Y140.077 E31.13639
G1 X137.38 Y140.842 E31.19375
G1 X137.249 Y141.07 E31.21124
G1 X136.921 Y141.604 E31.25293
G1 X136.801 Y141.786 E31.26743
G1 X136.31 Y142.467 E31.32328
G1 X136.168 Y142.648 E31.33858
G1 X135.706 Y143.196 E31.38626
G1 X135.544 Y143.375 E31.40232
G1 X134.981 Y143.95 E31.45585
G1 X134.804 Y144.117 E31.47204
G1 X134.278 Y144.58 E31.51865
G1 X134.11 Y144.718 E31.53312
G1 X133.488 Y145.19 E31.58506
G1 X133.281 Y145.335 E31.60187
G1 X132.645 Y145.746 E31.65224
G1 X132.44 Y145.868 E31.66811
G1 X131.763 Y146.237 E31.7194
G1 X131.598 Y146.319 E31.73165
G1 X131.072 Y146.562 E31.7702
G1 X130.85 Y146.657 E31.78626
G1 X130.46 Y146.815 E31.81425
G1 X129.939 Y146.999 E31.85101
G1 X129.698 Y147.077 E31.86786
G1 X128.984 Y147.28 E31.91723
G1 X128.784 Y147.329 E31.93093
G1 X127.705 Y147.533 E32.00398
G1 X127.285 Y147.589 E32.03216
G1 X126.129 Y147.676 E32.10928
G1 X124.768 Y147.7 E32.19983
G1 X110.311 Y147.7 E33.16151
G1 X110.099 Y147.698 E33.17561
G1 X108.753 Y147.67 E33.26517
G1 X107.568 Y147.576 E33.34424
G1 X107.351 Y147.546 E33.35882
G1 X106.59 Y147.411 E33.41023
G1 X106.359 Y147.361 E33.42595
G1 X105.653 Y147.182 E33.4744
G1 X105.424 Y147.115 E33.49027
G1 X104.632 Y146.847 E33.54589
G1 X104.395 Y146.756 E33.56278
G1 X103.752 Y146.484 E33.60922
G1 X103.539 Y146.385 E33.62484
G1 X102.757 Y145.979 E33.68346
G1 X102.529 Y145.848 E33.70095
G1 X101.995 Y145.519 E33.74267
G1 X101.81 Y145.397 E33.75741
G1 X101.089 Y144.876 E33.81658
G1 X100.901 Y144.727 E33.83254
G1 X100.391 Y144.295 E33.877
G1 X100.222 Y144.142 E33.89217
G1 X99.649 Y143.58 E33.94556
G1 X99.482 Y143.403 E33.96174
G1 X99.019 Y142.877 E34.00836
G1 X98.881 Y142.709 E34.02282
G1 X98.403 Y142.079 E34.07542
G1 X98.259 Y141.873 E34.09214
G1 X97.861 Y141.258 E34.14087
G1 X97.738 Y141.052 E34.15683
G1 X97.338 Y140.314 E34.21267
G1 X97.236 Y140.106 E34.22808
G1 X96.96 Y139.492 E34.27286
G1 X96.87 Y139.273 E34.28861
G1 X96.59 Y138.506 E34.34293
G1 X96.509 Y138.253 E34.3606
G1 X96.309 Y137.542 E34.40973
G1 X96.264 Y137.356 E34.42246
G1 X96.069 Y136.315 E34.49291
G1 X96.013 Y135.898 E34.5209
G1 X95.924 Y134.729 E34.59889
G1 X95.9 Y133.351 E34.69057
G1 X95.901 Y99.211 E36.96157
G1 X95.913 Y98.479 E37.01027
G1 X96.015 Y97.204 E37.09535
G1 X96.045 Y96.994 E37.10946
G1 X96.212 Y96.106 E37.16957
G1 X96.338 Y95.622 E37.20284
G1 X96.369 Y95.514 E37.21031
G1 X96.824 Y94.249 E37.29974
G1 X96.913 Y94.045 E37.31454
G1 X97.31 Y93.234 E37.37461
G1 X97.87 Y92.326 E37.44557
G1 X98.013 Y92.119 E37.46231
G1 X98.559 Y91.4 E37.52236
G1 X99.166 Y90.731 E37.58245
G1 F2700 E32.58245
G0 F6000 X113.9 Y96.839
G0 X114.743 Y97.701
G1 F2700 E37.58245
G1 F1200 X126.143 Y97.712 E38.34078
G1 X126.143 Y98.5 E38.3932
G1 X114.743 Y98.499 E39.15153
G1 X114.743 Y97.701 E39.20462
G1 F2700 E34.20462
;MESH:p1 v5 case 02.stl
G0 F6000 X112.933 Y98.31
G0 X107.342 Y98.271
G0 X106.988 Y98.421
G0 X106.871 Y98.745
G0 X106.878 Y134.46
G0 X107.036 Y135.175
G0 X107.396 Y135.803
G0 X107.691 Y136.082
G0 X108.885 Y136.968
G1 F2700 E39.20462
G0 F6000 X108.834 Y137.263
;TYPE:WALL-OUTER
G1 F1200 X108.398 Y137.161 E39.2344
G1 X107.982 Y136.994 E39.26422
G1 X107.599 Y136.772 E39.29367
G1 X107.253 Y136.493 E39.32324
G1 X106.95 Y136.163 E39.35304
G1 X106.698 Y135.791 E39.38293
G1 X106.501 Y135.378 E39.41336
G1 X106.375 Y134.964 E39.44215
G1 X106.308 Y134.516 E39.47228
G1 X106.3 Y134.3 E39.48666
G1 X106.3 Y98.689 E41.85551
G1 X106.37 Y98.335 E41.87952
G1 X106.557 Y98.032 E41.9032
G1 X106.845 Y97.81 E41.92739
G1 X107.179 Y97.708 E41.95062
G1 X107.312 Y97.7 E41.95949
G1 X113.543 Y97.7 E42.37397
G1 X113.543 Y112.7 E43.37178
G1 X127.343 Y112.7 E44.28976
G1 X127.343 Y97.7 E45.28756
G1 X127.709 Y97.7 E45.31191
G1 X128.065 Y97.77 E45.33604
G1 X128.368 Y97.957 E45.35973
G1 X128.59 Y98.245 E45.38392
G1 X128.692 Y98.579 E45.40715
G1 X128.7 Y98.712 E45.41601
G1 X128.7 Y134.305 E47.78367
G1 X128.663 Y134.766 E47.81443
G1 X128.561 Y135.202 E47.84422
G1 X128.394 Y135.618 E47.87404
G1 X128.172 Y136.001 E47.90348
G1 X127.896 Y136.344 E47.93277
G1 X127.566 Y136.648 E47.96262
G1 X127.191 Y136.902 E47.99275
G1 X126.78 Y137.098 E48.02303
G1 X126.364 Y137.225 E48.05197
G1 X125.922 Y137.291 E48.0817
G1 X125.692 Y137.3 E48.09701
G1 X109.295 Y137.3 E49.18774
G1 X108.834 Y137.263 E49.2185
G0 F6000 X108.901 Y136.829
G1 F2700 E44.2185
G0 F6000 X108.587 Y136.579
G0 X108.039 Y137.948
G0 X110.537 Y105.244
G0 X110.636 Y106.71
G0 X110.576 Y106.413
G1 F2700 E49.2185
G0 F6000 X110.596 Y106.114
G1 F1200 X110.916 Y106.047 E49.24025
G1 X111.206 Y105.897 E49.26197
G1 X111.446 Y105.673 E49.28381
G1 X111.615 Y105.394 E49.30551
G1 X111.704 Y105.079 E49.32728
G1 X111.704 Y104.753 E49.34897
G1 X111.615 Y104.437 E49.37081
G1 X111.445 Y104.158 E49.39254
G1 X111.206 Y103.935 E49.41428
